X:1
T:Having Done All, to Stand
T:Having Done All, to Stand
T:Peter Philip Bilhorn
T:Julia Harriette Johnston, 1891
T:Public Domain Courtesy of the Cyber Hymnal™
T:Public Domain Courtesy of the Cyber Hymnal™
C:Peter Philip Bilhorn
Z:Public Domain
Z:Courtesy of the Cyber Hymnal™
%%score ( 1 2 ) 3
L:1/8
Q:1/4=103
M:6/8
K:F
V:1 treble 
V:2 treble 
V:3 bass 
V:1
 [FA][FA][FA] [FA]2 [EG] | [CF]3 C2 z | [Fc][Fc][Fc] [Fc]2 [FB] | [FA]3- [FA]2 z | %4
w: 1.~Sol- dier of Christ, be|stead- fast!|This is the “e- vil|day”; *|
w: 2.~Pa- tient and true and|faith- ful,|Fac- ing the dead- ly|foe; *|
w: 3.~This is no time to|ques- tion,|This is no time to|yield; *|
 [EB][EB][EB] (BA)[EG] | [FA]3 [Ac]2 z | [EG][EG][EG] [FA]2 [F=B] | ([Ec]3 [GB]3) | %8
w: Look to your roy- * al|lead- er,|Ev- er His word o-|bey. *|
w: Stand in the place * ap-|point- ed,|March when He bids you|go. *|
w: Nev- er a soul * should|fal- ter,|Bear- ing His sword and|shield. *|
 [FA][FA][FA] [FA]2 [EG] | [CF]3 C2 z | [Fc][Fc][Fc] [Fc]2 [FB] | [FA]3- [FA]2 z | %12
w: Tak- ing the heav’n- ly|ar- mor,|Wait for your Lord’s com-|mand; *|
w: All through the pass- ing|mo- ments,|On- ward to Ca- naan’s|land; *|
w: Keep in the ranks of|Je- sus,|Watch- ing on ev- ery|hand; *|
 [Fd][Fd][Fd] [Ff]2 [Fd] | [Fc]3 [FA]2 z | FF[FG] [FA]2 [EG] | F3- F2 z || %16
w: This is the charge He|gives you,|“Hav- ing done all, to|stand.” *|
w: Ban- ish all fear and|doubt- ing,|Hav- ing done all, to|stand. *|
w: This is the Chris- tian|du- ty,|“Hav- ing done all, to|stand.” *|
"^Refrain" [Ac]3 [FA]2 [Bd] | [Ac]3- [Ac]2 z | [GB]3 [EG]2 [Bd] | [Ac]3- [Ac]2 z | %20
w: ||||
w: Stand, there- fore,|stand; *|Stand, there- fore,|stand; *|
w: ||||
 F[FA][Fc] [Ff][Fc][FA] | [Fe]3 [Fd]3 | [Fc][FA]F [FA]2 [EG] | [CF]3- [CF]2 z |] %24
w: ||||
w: Trust- ing in Je- sus, our|Sav- ior,|Hav- ing done all to|stand. *|
w: ||||
V:2
 x6 | x3 C2 x | x6 | x6 | x3 E2 x | x6 | x6 | x6 | x6 | x3 C2 x | x6 | x6 | x6 | x6 | FF x4 | %15
 F3- F2 x || x6 | x6 | x6 | x6 | F x5 | x6 | x2 F x3 | x6 |] %24
V:3
 [F,C][F,C][F,C] [F,C]2 [C,B,] | [F,A,]3 [F,A,]2 z | [F,A,][F,A,][F,A,] [F,A,]2 [F,D] | %3
 [F,C]3- [F,C]2 z | [C,C][C,C][C,C] [C,C]2 [C,C] | [F,C]3 [F,C]2 z | %6
 [G,C][G,C][G,C] [G,=B,]2 [G,D] | [C,C]6 | [F,C][F,C][F,C] [F,C]2 [C,B,] | [F,A,]3 [F,A,]2 z | %10
 [F,A,][F,A,][F,A,] [F,A,]2 [F,D] | [F,C]3- [F,C]2 z | [B,,B,][B,,B,][B,,B,] [D,B,]2 [B,,B,] | %13
 [F,A,]3 [F,C]2 z | [D,=B,][D,B,][D,B,] [C,C]2 [C,_B,] | [F,A,]3- [F,A,]2 z || %16
 [F,C]3 [F,C]2 [F,C] | [F,C]3- [F,C]2 z | [C,C]3 [C,C]2 [C,C] | [F,C]3- [F,C]2 z | %20
 [F,A,][F,C][F,A,] [F,A,][F,A,][F,C] | [B,,B,]3 [B,,B,]3 | [C,A,][C,C][C,A,] [C,C]2 [C,B,] | %23
 [F,,F,A,]3- [F,,F,A,]2 z |] %24

